X:106
T:Lord Doneraile
N:"With spirit" "collected by J.O'Neill"
B:O'Neill's 106
Z:Transcribed by henrik.norbeck@mailbox.swipnet.se
M:6/8
L:1/8
K:Gm
D|GAG Gcc|AFF F2 A|GAG Ggg|fdd d2 d/e/|
fgf gfed|cdB ABc|ded edzc|BGG G2||
d|gdg gab|af.f f2 a|gag gfe|fd.d d2 e|
fgf Tfed|cdB ABc|ded edzc|BGG G2||
D|G3 c3|AFF F2 A|G3 g2 e|fdd d2 e|
fgf Tfed|cdB ABc|ded edzc|BGG G2||
